#define app_lora_width 38
#define app_lora_height 46
static unsigned char app_lora_bits[] = {
   0x00, 0x00, 0x00, 0x00, 0x00, 0x00, 0x00, 0x00, 0x00, 0x00, 0x00, 0x00,
   0x00, 0x00, 0x00, 0x00, 0x00, 0x00, 0x00, 0x00, 0x00, 0x00, 0x00, 0x00,
   0x00, 0x00, 0x00, 0x00, 0x00, 0x00, 0x00, 0xfc, 0x01, 0x00, 0x00, 0x00,
   0x02, 0x02, 0x00, 0x00, 0x00, 0xf9, 0x04, 0x00, 0x00, 0x00, 0x04, 0x01,
   0x00, 0x00, 0x00, 0x72, 0x02, 0x00, 0x00, 0x18, 0x88, 0xf8, 0x01, 0x00,
   0x18, 0x00, 0xf8, 0x03, 0x00, 0x18, 0x70, 0x18, 0xf3, 0x01, 0x18, 0xf8,
   0x18, 0xf3, 0x03, 0x18, 0x8c, 0xf9, 0x03, 0x03, 0x18, 0x8c, 0xf9, 0xf1,
   0x03, 0x18, 0x8c, 0x99, 0x1b, 0x03, 0xf8, 0xf8, 0x18, 0xfb, 0x03, 0xf8,
   0x70, 0x18, 0x73, 0x03, 0x00, 0x00, 0x00, 0x00, 0x00, 0x00, 0x88, 0x00,
   0x00, 0x00, 0x00, 0x72, 0x02, 0x00, 0x00, 0x00, 0x04, 0x01, 0x00, 0x00,
   0x00, 0xf9, 0x04, 0x00, 0x00, 0x00, 0x02, 0x02, 0x00, 0x00, 0x00, 0xfc,
   0x01, 0x00, 0x00, 0x00, 0x00, 0x00, 0x00, 0x00, 0x00, 0x00, 0x00, 0x00,
   0x00, 0x00, 0x00, 0x00, 0x00, 0x00, 0x00, 0x00, 0x00, 0x00, 0x00, 0x00,
   0x00, 0x00, 0x00, 0x00, 0x00, 0x00, 0x00, 0x00, 0x00, 0x00, 0x00, 0x00,
   0x00, 0x00, 0x00, 0x00, 0x00, 0x00, 0x00, 0x00, 0x00, 0x00, 0x00, 0x00,
   0x7c, 0x00, 0x4c, 0x20, 0x01, 0x10, 0x00, 0x48, 0x00, 0x01, 0x90, 0xe3,
   0x48, 0xb4, 0x07, 0x50, 0x14, 0x49, 0x22, 0x01, 0x50, 0x14, 0xc9, 0x21,
   0x01, 0x50, 0x14, 0x49, 0x22, 0x09, 0x90, 0xe3, 0x5c, 0x74, 0x06, 0x00,
   0x00, 0x00, 0x00, 0x00, 0x00, 0x00, 0x00, 0x00, 0x00, 0x00, 0x00, 0x00,
   0x00, 0x00 };
